common/svg/thumbs-down-icon.svg

<svg fill="none" height="20" viewBox="0 0 20 20" width="20" xmlns="http://www.w3.org/2000/svg" xmlns:xlink="http://www.w3.org/1999/xlink"><clipPath id="a"><path d="m0 0h20v20h-20z"/></clipPath><g clip-path="url(#a)" fill="#000"><path d="m8.9995 17.34-2.92001-6.46c-.05387-.1201-.0811-.2495-.08-.38v-7.6c0-.50391.21072-.98718.58579-1.3435s.88378-.5565 1.41422-.5565h6c.7818.02963 1.54.26227 2.1923.67262.6524.41035 1.1738.98271 1.5077 1.65488l2.23 4.8925c.0505.12079.0743.25012.07.38v1.9c0 .7559-.316 1.4808-.8786 2.0153-.5627.5344-1.3257.8347-2.1214.8347h-4v3.8c0 .7559-.3161 1.4808-.8787 2.0153-.5626.5344-1.3256.8347-2.1213.8347-.26521 0-.51957-.1001-.70711-.2782-.18753-.1782-.29289-.4198-.29289-.6718z"/><path d="m1.00003 11.5h2.00001c.55229 0 1-.4253 1-.95v-8.55c0-.52467-.44771-.95-1-.95h-2.00001c-.552282 0-.99999948.42533-.99999948.95v8.55c0 .5247.44771748.95.99999948.95z"/></g></svg>

<svg width="20" height="20" viewBox="0 0 20 20" fill="none" xmlns="http://www.w3.org/2000/svg">
<g clip-path="url(#clip0_2791_2867)">
<path d="M8.9995 17.34L6.07949 10.88C6.02562 10.7599 5.99839 10.6305 5.99949 10.5V2.9C5.99949 2.39609 6.21021 1.91282 6.58528 1.5565C6.96035 1.20018 7.46906 1 7.9995 1H13.9995C14.7813 1.02963 15.5395 1.26227 16.1918 1.67262C16.8442 2.08297 17.3656 2.65533 17.6995 3.3275L19.9295 8.22C19.98 8.34079 20.0038 8.47012 19.9995 8.6V10.5C19.9995 11.2559 19.6835 11.9808 19.1209 12.5153C18.5582 13.0497 17.7952 13.35 16.9995 13.35H12.9995V17.15C12.9995 17.9059 12.6834 18.6308 12.1208 19.1653C11.5582 19.6997 10.7952 20 9.9995 20C9.73429 20 9.47993 19.8999 9.29239 19.7218C9.10486 19.5436 8.9995 19.302 8.9995 19.05V17.34Z" fill="black"/>
<path d="M1.00003 11.5H3.00004C3.55233 11.5 4.00004 11.0747 4.00004 10.55V2C4.00004 1.47533 3.55233 1.05 3.00004 1.05H1.00003C0.447748 1.05 3.05176e-05 1.47533 3.05176e-05 2V10.55C3.05176e-05 11.0747 0.447748 11.5 1.00003 11.5Z" fill="black"/>
</g>
<defs>
<clipPath id="clip0_2791_2867">
<rect width="20" height="20" fill="white"/>
</clipPath>
</defs>
</svg>
